assets/02_eyes/Eye 12.svg

<svg width="400" height="180" viewBox="0 0 400 180" fill="none" xmlns="http://www.w3.org/2000/svg">
<g clip-path="url(#clip0_70_892)">
<path d="M207.894 8H192.105V59.6943H207.894V8Z" fill="black"/>
<path d="M150.804 21.367L139.64 32.5074L176.272 69.0608L187.436 57.9204L150.804 21.367Z" fill="black"/>
<path d="M260.366 32.4925L249.202 21.3522L212.57 57.9056L223.734 69.0459L260.366 32.4925Z" fill="black"/>
<path d="M290 134.457V135H110V134.436C110.314 85.1027 150.477 45.2141 200 45.2141C249.523 45.2141 289.728 85.1236 290 134.457Z" fill="white"/>
<path d="M263.49 135H136.531C136.531 100.022 164.946 71.6463 200 71.6463C235.053 71.6463 263.49 100.022 263.49 135Z" fill="#5CB94B"/>
<path d="M228.311 135H171.689C171.689 119.412 184.358 106.771 199.979 106.771C215.6 106.771 228.29 119.412 228.29 135H228.311Z" fill="white"/>
</g>
<defs>
<clipPath id="clip0_70_892">
<rect width="180" height="127" fill="white" transform="translate(110 8)"/>
</clipPath>
</defs>
</svg>

<svg xmlns="http://www.w3.org/2000/svg" width="400" height="180" fill="none" viewBox="0 0 400 180"><g clip-path="url(#Eye_12_svg_clip0_70_892)"><path fill="#000" d="M207.894 8h-15.789v51.694h15.789z"/><path fill="#000" d="m150.804 21.367-11.164 11.14 36.632 36.554 11.164-11.14z"/><path fill="#000" d="m260.366 32.493-11.164-11.14-36.632 36.553 11.164 11.14z"/><path fill="#fff" d="M290 134.457V135H110v-.564c.314-49.333 40.477-89.222 90-89.222s89.728 39.91 90 89.243"/><path fill="#5cb94b" d="M263.49 135H136.531c0-34.978 28.415-63.354 63.469-63.354 35.053 0 63.49 28.376 63.49 63.354"/><path fill="#fff" d="M228.311 135h-56.622c0-15.588 12.669-28.229 28.29-28.229S228.29 119.412 228.29 135z"/></g><defs><clipPath id="Eye_12_svg_clip0_70_892"><rect width="180" height="127" fill="#fff" transform="translate(110 8)"/></clipPath></defs></svg>
